!!!OTL: 751. Christliches Verlangen nach dem Erloeser. / Andere Melodie.
!!!COM: Heinr. Carl Breidenstein
!!!ODT: 1824
!!!ARE: Europa, Mitteleuropa, Deutschland
!!!SCT: B0751A
!!!TXL: @@DE
!!!YEM: Copyright 1995, estate of Helmut Schaffrath.
**kern	**text
*ICvox	*
*Ivox	*
*clefG2	*
*M4/4	*
*met(c)	*
*k[b-e-a-]	*
*E-:	*
=1	=1
!LO:TX:a:t=Choralartig.	!
{4b-	Wenn
4b-	ich
4ee-	ihn
8ddL	nur
8ccJ	.
=2	=2
(<4b-	ha-
4a-)	.
2g}	-be,
=3	=3
{4g	wenn
4cc	er
4b-	mein
4an	nur
=4	=4
4b-	iſt,
4r}	.
{4b-	wenn
8ccL	mein
8ddJ	.
=5	=5
4ee-	Herʒ
4ee-	bis
4ee-	hin
8ddL	ʒum
8ccJ	.
=6	=6
(<4b-	Gra-
4a-)	.
2g}	-be
=7	=7
{4cc	ſei-
4b-	-ne
8b-L	Treu-
8a-J	.
4g	-e
=8	=8
4f	nie
8gL	ver-
8fJ	.
2f}	-gißt
=9	=9
{4dd	weiß
8ccL	ich
8b-J	.
4an	nichts
4b-	von
=10	=10
2ee-	Lei-
4dd	-de,
4r}	.
=11	=11
{4ee-	füh-
(8ddL	-le
8ffJ)	.
4ee-	nichts
4b-	als
=12	=12
4cc	An-
4b-	-dacht,
8b-L	Lieb'
8a-J	.
4g	und
=13	=13
2f	Freu-
4e-	-de.
4r}	.
==	==
!!!AGN: religioes
!!!GTL: Religioese Lieder
!!!ONB: ESAC (Essen Associative Code) Database: BOEHME
!!!AMT: simple quadruple
!!!AIN: vox
!!!EED: Helmut Schaffrath
!!!EEV: 1.0
!!!RDF**kern: < = below
!!!URL-scan: https://archive.org/details/BoehmeVtLieder1895/page/n603/mode/2up
!!!ENC: Anna Maria Matuszewska
!!!EEV: 2024/19/07
*-	*-
